<?xml version='1.0' encoding='utf-8'?>
<map version="1.10" tiledversion="1.11.2" orientation="isometric" renderorder="right-down" width="14" height="14" tilewidth="80" tileheight="40" infinite="0" nextlayerid="8" nextobjectid="10">
  <tileset firstgid="1" source="ground.tsx" />
  <tileset firstgid="35" source="paths.tsx" />
  <tileset firstgid="41" source="paths_anchored.tsx" />
  <tileset firstgid="47" source="floor_decor.tsx" />
  <tileset firstgid="53" source="vegetation.tsx" />
  <tileset firstgid="61" source="rocks.tsx" />
  <tileset firstgid="67" source="structures.tsx" />
  <tileset firstgid="70" source="props.tsx" />
  <layer id="1" name="ground" width="14" height="14">
    <data encoding="csv">
0,0,0,0,0,0,0,0,0,0,0,0,0,0,
0,0,0,0,0,0,0,0,0,0,0,0,0,0,
0,0,0,0,0,0,0,0,0,0,0,0,0,0,
0,0,0,0,0,0,0,0,0,0,0,0,0,0,
0,0,0,0,0,0,0,0,0,0,0,0,0,0,
0,0,0,0,0,0,0,0,0,0,0,0,0,0,
0,0,0,0,0,0,0,0,0,0,0,0,0,0,
0,0,0,0,0,0,0,0,0,0,0,0,0,0,
0,0,0,0,0,0,0,0,0,0,0,0,0,0,
0,0,0,0,0,0,0,0,0,0,0,0,0,0,
0,0,0,0,0,0,0,0,0,0,0,0,0,0,
0,0,0,0,0,0,0,0,0,0,0,0,0,0,
0,0,0,0,0,0,0,0,0,0,0,0,0,0,
0,0,0,0,0,0,0,0,0,0,0,0,0,0
</data>
  </layer>
  <layer id="2" name="skirt" width="14" height="14">
    <data encoding="csv">
0,0,0,0,0,0,0,0,0,0,0,0,0,0,
0,0,0,0,0,0,0,0,0,0,0,0,0,0,
0,0,0,0,0,0,0,0,0,0,0,0,0,0,
0,0,0,0,0,0,0,0,0,0,0,0,0,0,
0,0,0,0,0,0,0,0,0,0,0,0,0,0,
0,0,0,0,0,0,0,0,0,0,0,0,0,0,
0,0,0,0,0,0,0,0,0,0,0,0,0,0,
0,0,0,0,0,0,0,0,0,0,0,0,0,0,
0,0,0,0,0,0,0,0,0,0,0,0,0,0,
0,0,0,0,0,0,0,0,0,0,0,0,0,0,
0,0,0,0,0,0,0,0,0,0,0,0,0,0,
0,0,0,0,0,0,0,0,0,0,0,0,0,0,
0,0,0,0,0,0,0,0,0,0,0,0,0,0,
0,0,0,0,0,0,0,0,0,0,0,0,0,0
</data>
  </layer>
  <layer id="3" name="path" width="14" height="14">
    <data encoding="csv">
0,0,0,0,0,0,0,0,0,0,0,0,0,0,
0,0,0,0,0,0,0,0,0,0,0,0,0,0,
0,0,0,0,0,0,0,0,0,0,0,0,0,0,
0,0,0,0,0,0,0,0,0,0,0,0,0,0,
0,0,0,0,0,0,0,0,0,0,0,0,0,0,
0,0,0,0,0,0,0,0,0,0,0,0,0,0,
0,0,0,0,0,0,0,0,0,0,0,0,0,0,
0,0,0,0,0,0,0,0,0,0,0,0,0,0,
0,0,0,0,0,0,35,0,0,0,0,0,0,0,
0,0,0,0,0,0,0,36,0,0,0,0,0,0,
0,0,0,0,0,0,0,0,37,0,0,0,0,0,
0,0,0,0,0,0,0,0,38,0,0,0,0,0,
0,0,0,0,0,0,0,0,0,39,0,0,0,0,
0,0,0,0,0,0,0,0,0,0,0,0,0,0
</data>
  </layer>
  <objectgroup id="4" name="plots" color="#ffd166">
    <object id="1" name="plot_0" class="plot" x="160" y="360">
      <properties>
        <property name="gridCol" type="float" value="-3.5" />
        <property name="gridRow" type="float" value="-0.5" />
      </properties>
      <point />
    </object>
    <object id="2" name="plot_1" class="plot" x="340" y="340">
      <properties>
        <property name="gridCol" type="float" value="1" />
        <property name="gridRow" type="float" value="-1" />
      </properties>
      <point />
    </object>
    <object id="3" name="plot_2" class="plot" x="320" y="520">
      <properties>
        <property name="gridCol" type="float" value="0.5" />
        <property name="gridRow" type="float" value="3.5" />
      </properties>
      <point />
    </object>
    <object id="4" name="plot_3" class="plot" x="440" y="400">
      <properties>
        <property name="gridCol" type="float" value="3.5" />
        <property name="gridRow" type="float" value="0.5" />
      </properties>
      <point />
    </object>
    <object id="5" name="plot_4" class="plot" x="220" y="300">
      <properties>
        <property name="gridCol" type="float" value="-2" />
        <property name="gridRow" type="float" value="-2" />
      </properties>
      <point />
    </object>
    <object id="6" name="plot_5" class="plot" x="260" y="420">
      <properties>
        <property name="gridCol" type="float" value="-1" />
        <property name="gridRow" type="float" value="1" />
      </properties>
      <point />
    </object>
    <object id="7" name="plot_6" class="plot" x="380" y="460">
      <properties>
        <property name="gridCol" type="float" value="2" />
        <property name="gridRow" type="float" value="2" />
      </properties>
      <point />
    </object>
    <object id="8" name="plot_7" class="plot" x="280" y="240">
      <properties>
        <property name="gridCol" type="float" value="-0.5" />
        <property name="gridRow" type="float" value="-3.5" />
      </properties>
      <point />
    </object>
  </objectgroup>
  <objectgroup id="5" name="floor_decor" />
  <objectgroup id="6" name="edge_overlays" />
  <objectgroup id="7" name="props">
    <object id="9" name="east_upper_rock" class="prop" gid="62" x="300" y="220" width="48.6" height="33.3">
      <properties>
        <property name="gridCol" type="float" value="0" />
        <property name="gridRow" type="float" value="-4" />
        <property name="opacity" type="float" value="0.82" />
      </properties>
    </object>
  </objectgroup>
</map>
