<?xml version="1.0" encoding="UTF-8"?>
<map version="1.11" tiledversion="1.11.0" orientation="orthogonal" renderorder="right-down" width="20" height="20" tilewidth="32" tileheight="32" infinite="0" backgroundcolor="#b9d89b" nextlayerid="8" nextobjectid="9">
 <properties>
  <property name="growstepView" value="orthogonal"/>
  <property name="sourcePack" value="Fantasy Farm Asset Pack v1.0 (paid)"/>
 </properties>
 <tileset firstgid="1" source="fantasy_farm/buildings__farm_house.tsx"/>
 <tileset firstgid="49" source="fantasy_farm/buildings__barn.tsx"/>
 <tileset firstgid="97" source="fantasy_farm/buildings__coop.tsx"/>
 <tileset firstgid="129" source="fantasy_farm/objects__bushes.tsx"/>
 <tileset firstgid="137" source="fantasy_farm/objects__decor_plants.tsx"/>
 <tileset firstgid="145" source="fantasy_farm/objects__fence.tsx"/>
 <tileset firstgid="160" source="fantasy_farm/objects__flowers.tsx"/>
 <tileset firstgid="173" source="fantasy_farm/objects__mushrooms.tsx"/>
 <tileset firstgid="179" source="fantasy_farm/objects__stones.tsx"/>
 <tileset firstgid="188" source="fantasy_farm/tiles__farm_tile.tsx"/>
 <tileset firstgid="208" source="fantasy_farm/tiles__grass.tsx"/>
 <tileset firstgid="258" source="fantasy_farm/tiles__hill.tsx"/>
 <tileset firstgid="298" source="fantasy_farm/tiles__water.tsx"/>
 <tileset firstgid="328" source="fantasy_farm/trees__tree1.tsx"/>
 <tileset firstgid="373" source="fantasy_farm/trees__tree2.tsx"/>
 <tileset firstgid="418" source="fantasy_farm/trees__tree3.tsx"/>
 <tileset firstgid="463" source="fantasy_farm/crops__Crops.tsx"/>
 <tileset firstgid="531" source="fantasy_farm/crops2.tsx"/>
 <tileset firstgid="575" source="fantasy_farm/trees4.tsx"/>
 <layer id="1" name="ground" width="20" height="20">
  <data encoding="csv">
235,235,235,235,235,235,235,235,235,235,235,235,235,235,235,235,235,235,235,235,
235,235,235,235,235,235,235,235,235,235,235,235,235,235,235,235,235,235,235,235,
235,235,235,235,235,235,235,235,235,235,235,235,235,235,235,235,235,235,235,235,
235,235,235,235,235,235,235,235,235,235,235,235,235,235,235,235,235,235,235,235,
235,235,235,235,235,235,235,235,235,235,235,235,235,235,235,235,235,235,235,235,
235,235,235,235,235,235,235,235,235,235,235,235,235,235,235,235,235,235,235,235,
235,235,235,235,235,235,235,235,235,235,235,235,235,235,235,235,235,235,235,235,
235,235,235,235,235,235,235,235,235,235,235,235,235,235,235,235,235,235,235,235,
235,235,235,235,235,235,235,235,235,235,235,235,235,235,235,235,235,235,235,235,
235,235,235,235,235,235,235,235,235,235,235,235,235,235,235,235,235,235,235,235,
235,235,235,235,235,235,235,235,235,235,235,235,235,235,235,235,235,235,235,235,
235,235,235,235,235,235,235,235,235,235,235,235,235,235,235,235,235,235,235,235,
235,235,235,235,235,235,235,235,235,235,235,235,235,235,235,235,235,235,235,235,
235,235,235,235,235,235,235,235,235,235,235,235,235,235,235,235,235,235,235,235,
235,235,235,235,235,235,235,235,235,235,235,235,235,235,235,235,235,235,235,235,
235,235,235,235,235,235,235,235,235,235,235,235,235,235,235,235,235,235,235,235,
235,235,235,235,235,235,235,235,235,235,235,235,235,235,235,235,235,235,235,235,
235,235,235,235,235,235,235,235,235,235,235,235,235,235,235,235,235,235,235,235,
235,235,235,235,235,235,235,235,235,235,235,235,235,235,235,235,235,235,235,235,
235,235,235,235,235,235,235,235,235,235,235,235,235,235,235,235,235,235,235,235
</data>
 </layer>
 <layer id="2" name="paths" width="20" height="20">
  <data encoding="csv">
0,0,0,0,0,0,0,0,0,0,0,0,0,0,0,0,0,0,0,0,
0,0,0,0,0,0,0,0,0,0,0,0,0,0,0,0,0,0,0,0,
0,0,0,0,0,0,0,0,0,0,0,0,0,0,0,0,0,0,0,0,
0,0,0,0,0,0,0,0,0,0,0,0,0,0,0,0,0,0,0,0,
0,0,0,0,0,0,0,0,0,0,0,0,0,0,0,0,0,0,0,0,
0,0,0,0,0,0,0,0,0,0,0,0,0,0,0,0,0,0,0,0,
0,0,0,0,0,0,0,0,0,0,0,0,0,0,0,0,0,0,0,0,
0,0,0,0,0,0,0,0,0,0,0,0,0,0,0,0,0,0,0,0,
0,0,0,0,0,0,0,0,0,0,0,0,0,0,0,0,0,0,0,0,
0,0,0,0,0,0,0,0,0,0,0,0,0,0,0,0,0,0,0,0,
0,0,0,0,0,0,0,0,0,0,0,0,0,0,0,0,0,0,0,0,
0,0,0,0,0,0,0,0,0,0,0,0,0,0,0,0,0,0,0,0,
0,0,0,0,0,0,0,0,0,0,0,0,0,0,0,0,0,0,0,0,
0,0,0,0,0,0,0,0,0,0,0,0,0,0,0,0,0,0,0,0,
0,0,0,0,0,0,0,0,0,0,0,0,0,0,0,0,0,0,0,0,
0,0,0,0,0,0,0,0,0,0,0,0,0,0,0,0,0,0,0,0,
0,0,0,0,0,0,0,0,0,0,0,0,0,0,0,0,0,0,0,0,
0,0,0,0,0,0,0,0,0,0,0,0,0,0,0,0,0,0,0,0,
0,0,0,0,0,0,0,0,0,0,0,0,0,0,0,0,0,0,0,0,
0,0,0,0,0,0,0,0,0,0,0,0,0,0,0,0,0,0,0,0
</data>
 </layer>
 <layer id="3" name="soil" width="20" height="20">
  <data encoding="csv">
0,0,0,0,0,0,0,0,0,0,0,0,0,0,0,0,0,0,0,0,
0,0,0,0,0,0,0,0,0,0,0,0,0,0,0,0,0,0,0,0,
0,0,0,0,0,0,0,0,0,0,0,0,0,0,0,0,0,0,0,0,
0,0,0,0,0,0,0,0,0,0,0,0,0,0,0,0,0,0,0,0,
0,0,0,0,0,0,0,0,0,0,0,0,0,0,0,0,0,0,0,0,
0,0,0,0,0,0,0,0,0,0,0,0,0,0,0,0,0,0,0,0,
0,0,0,0,0,0,0,0,0,0,0,0,0,0,0,0,0,0,0,0,
0,0,0,0,0,0,0,0,0,0,0,0,0,0,0,0,0,0,0,0,
0,0,0,0,0,0,0,0,0,0,0,0,0,0,0,0,0,0,0,0,
0,0,0,0,0,0,0,0,0,0,0,0,0,0,0,0,0,0,0,0,
0,0,0,0,0,0,0,0,0,0,0,0,0,0,0,0,0,0,0,0,
0,0,0,0,0,0,0,0,0,0,0,0,0,0,0,0,0,0,0,0,
0,0,0,0,0,0,0,0,0,0,0,0,0,0,0,0,0,0,0,0,
0,0,0,0,0,0,0,0,0,0,0,0,0,0,0,0,0,0,0,0,
0,0,0,0,0,0,0,0,0,0,0,0,0,0,0,0,0,0,0,0,
0,0,0,0,0,0,0,0,0,0,0,0,0,0,0,0,0,0,0,0,
0,0,0,0,0,0,0,0,0,0,0,0,0,0,0,0,0,0,0,0,
0,0,0,0,0,0,0,0,0,0,0,0,0,0,0,0,0,0,0,0,
0,0,0,0,0,0,0,0,0,0,0,0,0,0,0,0,0,0,0,0,
0,0,0,0,0,0,0,0,0,0,0,0,0,0,0,0,0,0,0,0
</data>
 </layer>
 <layer id="4" name="orchard_preview" width="20" height="20">
  <data encoding="csv">
0,0,0,0,0,0,0,0,0,0,0,0,0,0,0,0,0,0,0,0,
0,0,0,0,0,0,0,0,0,0,0,0,0,0,0,0,0,0,0,0,
0,0,0,0,0,0,0,0,0,0,0,0,0,0,0,0,0,0,0,0,
0,0,0,0,0,0,0,0,0,0,0,0,0,0,0,0,0,0,0,0,
0,0,0,0,0,0,0,0,0,0,0,0,0,0,0,0,0,0,0,0,
0,0,0,0,0,0,0,0,0,0,0,0,0,0,0,0,0,0,0,0,
0,0,0,0,0,0,0,0,0,0,0,0,0,0,0,0,0,0,0,0,
0,0,0,0,0,0,0,0,0,0,0,0,0,0,0,0,0,0,0,0,
0,0,0,0,0,0,0,0,0,0,0,0,0,0,0,0,0,0,0,0,
0,0,0,0,0,0,0,0,0,0,0,0,0,0,0,0,0,0,0,0,
0,0,0,0,0,0,0,0,0,0,0,0,0,0,0,0,0,0,0,0,
0,0,0,0,0,0,0,0,0,0,0,0,0,0,0,0,0,0,0,0,
0,0,0,0,0,0,0,0,0,0,0,0,0,0,0,0,0,0,0,0,
0,0,0,0,0,0,0,0,0,0,0,0,0,0,0,0,0,0,0,0,
0,0,0,0,0,0,0,0,0,0,0,0,0,0,0,0,0,0,0,0,
0,0,0,0,0,0,0,0,0,0,0,0,0,0,0,0,0,0,0,0,
0,0,0,0,0,0,0,0,0,0,0,0,0,0,0,0,0,0,0,0,
0,0,0,0,0,0,0,0,0,0,0,0,0,0,0,0,0,0,0,0,
0,0,0,0,0,0,0,0,0,0,0,0,0,0,0,0,0,0,0,0,
0,0,0,0,0,0,0,0,0,0,0,0,0,0,0,0,0,0,0,0
</data>
 </layer>
 <layer id="5" name="plants_preview" width="20" height="20">
  <data encoding="csv">
0,0,0,0,0,0,0,0,0,0,0,0,0,0,0,0,0,0,0,0,
0,0,0,0,0,0,0,0,0,0,0,0,0,0,0,0,0,0,0,0,
0,0,0,0,0,0,0,0,0,0,0,0,0,0,0,0,0,0,0,0,
0,0,0,0,0,0,0,0,0,0,0,0,0,0,0,0,0,0,0,0,
0,0,0,0,474,474,0,0,0,474,474,0,0,0,474,474,0,0,0,0,
0,0,0,0,474,474,0,0,0,474,474,0,0,0,474,474,0,0,0,0,
0,0,0,0,0,0,0,0,0,0,0,0,0,0,0,0,0,0,0,0,
0,0,0,0,0,0,0,0,0,0,0,0,0,0,0,0,0,0,0,0,
0,0,0,0,0,0,0,0,0,0,0,0,0,0,0,0,0,0,0,0,
0,0,0,0,490,490,0,0,0,0,0,0,0,0,490,490,0,0,0,0,
0,0,0,0,490,490,0,0,0,0,0,0,0,0,490,490,0,0,0,0,
0,0,0,0,0,0,0,0,0,0,0,0,0,0,0,0,0,0,0,0,
0,0,0,0,0,0,0,0,0,0,0,0,0,0,0,0,0,0,0,0,
0,0,0,0,0,0,0,0,0,0,0,0,0,0,0,0,0,0,0,0,
0,0,0,0,530,530,0,0,0,530,530,0,0,0,530,530,0,0,0,0,
0,0,0,0,530,530,0,0,0,530,530,0,0,0,530,530,0,0,0,0,
0,0,0,0,0,0,0,0,0,0,0,0,0,0,0,0,0,0,0,0,
0,0,0,0,0,0,0,0,0,0,0,0,0,0,0,0,0,0,0,0,
0,0,0,0,0,0,0,0,0,0,0,0,0,0,0,0,0,0,0,0,
0,0,0,0,0,0,0,0,0,0,0,0,0,0,0,0,0,0,0,0
 </data>
 </layer>
 <layer id="6" name="decor" width="20" height="20">
  <data encoding="csv">
0,0,0,0,0,0,0,0,0,0,0,0,0,0,1,2,3,4,5,6,
0,0,0,0,0,0,0,0,0,0,0,0,0,0,7,8,9,10,11,12,
0,0,0,0,0,0,0,0,0,0,0,0,0,0,13,14,15,16,17,18,
0,0,0,0,0,0,0,0,0,0,0,0,0,0,19,20,21,22,23,24,
0,0,0,0,0,0,0,0,0,0,0,0,0,0,25,26,27,28,29,30,
0,0,0,0,0,0,0,0,0,0,0,0,0,0,31,32,33,34,35,36,
0,0,0,0,0,0,0,0,0,0,0,0,0,0,37,38,39,40,41,42,
0,0,0,0,0,0,0,0,0,0,0,0,0,0,43,44,45,46,47,48,
0,0,0,0,0,0,0,0,0,0,0,0,0,0,0,0,0,0,0,0,
0,0,0,0,0,0,0,0,0,0,0,0,0,0,0,0,0,0,0,0,
0,0,0,0,0,0,0,0,0,0,0,0,0,0,0,0,0,0,0,0,
0,0,0,0,0,0,0,0,0,0,0,0,0,0,0,0,0,0,0,0,
0,0,0,0,0,0,0,0,0,0,0,0,0,0,0,0,0,0,0,0,
0,0,0,0,0,0,0,0,0,0,0,0,0,0,0,0,0,0,0,0,
0,0,0,0,0,0,0,0,0,0,0,0,0,0,0,0,0,0,0,0,
0,0,0,0,0,0,0,0,0,0,0,0,0,0,0,0,0,0,0,0,
0,0,0,0,0,0,0,0,0,0,0,0,0,0,0,0,0,0,0,0,
0,0,0,0,0,0,0,0,0,0,0,0,0,0,0,0,0,0,0,0,
0,0,0,0,0,0,0,0,0,0,0,0,0,0,0,0,0,0,0,0,
0,0,0,0,0,0,0,0,0,0,0,0,0,0,0,0,0,0,0,0
</data>
 </layer>
 <objectgroup id="7" name="plots">
 <object id="1" name="plot_0" class="plot" x="160" y="160">
  <properties>
   <property name="gridX" type="int" value="4"/>
   <property name="gridY" type="int" value="4"/>
  </properties>
  <point/>
 </object>
 <object id="2" name="plot_1" class="plot" x="320" y="160">
  <properties>
   <property name="gridX" type="int" value="9"/>
   <property name="gridY" type="int" value="4"/>
  </properties>
  <point/>
 </object>
 <object id="3" name="plot_2" class="plot" x="480" y="160">
  <properties>
   <property name="gridX" type="int" value="14"/>
   <property name="gridY" type="int" value="4"/>
  </properties>
  <point/>
 </object>
 <object id="4" name="plot_3" class="plot" x="160" y="320">
  <properties>
   <property name="gridX" type="int" value="4"/>
   <property name="gridY" type="int" value="9"/>
  </properties>
  <point/>
 </object>
 <object id="5" name="plot_4" class="plot" x="480" y="320">
  <properties>
   <property name="gridX" type="int" value="14"/>
   <property name="gridY" type="int" value="9"/>
  </properties>
  <point/>
 </object>
 <object id="6" name="plot_5" class="plot" x="160" y="480">
  <properties>
   <property name="gridX" type="int" value="4"/>
   <property name="gridY" type="int" value="14"/>
  </properties>
  <point/>
 </object>
 <object id="7" name="plot_6" class="plot" x="320" y="480">
  <properties>
   <property name="gridX" type="int" value="9"/>
   <property name="gridY" type="int" value="14"/>
  </properties>
  <point/>
 </object>
 <object id="8" name="plot_7" class="plot" x="480" y="480">
  <properties>
   <property name="gridX" type="int" value="14"/>
   <property name="gridY" type="int" value="14"/>
  </properties>
  <point/>
 </object>
</objectgroup>
</map>
