<?xml version='1.0' encoding='utf-8'?>
<map version="1.10" tiledversion="1.11.2" orientation="isometric" renderorder="right-down" width="18" height="18" tilewidth="80" tileheight="40" infinite="0" nextlayerid="12" nextobjectid="29">
  <properties>
    <property name="terrainOwnsPlots" type="bool" value="true" />
  </properties>
  <tileset firstgid="1" source="potager_square_terrain.tsx" />
  <tileset firstgid="69" source="paths_diorama.tsx" />
  <tileset firstgid="74" source="planter_edges.tsx" />
  <tileset firstgid="89" source="palette_plants_potager.tsx" />
  <tileset firstgid="116" source="palette_plants_fleurs.tsx" />
  <tileset firstgid="125" source="palette_plants_verger.tsx" />
  <tileset firstgid="131" source="palette_cultivation.tsx" />
  <tileset firstgid="140" source="palette_structures.tsx" />
  <tileset firstgid="147" source="palette_props.tsx" />
  <tileset firstgid="162" source="palette_vegetation.tsx" />
  <tileset firstgid="183" source="palette_rocks.tsx" />
  <tileset firstgid="191" source="potager_square_paths_premium.tsx" />
  <layer id="1" name="ground" width="18" height="18">
    <data encoding="csv">
0,0,0,0,0,0,0,0,0,0,0,0,0,0,0,0,0,0,
0,0,0,0,0,0,0,0,0,0,0,0,0,0,0,0,0,0,
0,0,0,0,0,0,0,0,0,0,0,0,0,0,0,0,0,0,
0,0,0,0,0,0,0,0,0,0,0,0,0,0,0,0,0,0,
0,0,0,0,0,0,0,0,0,0,0,0,0,0,0,0,0,0,
0,0,0,0,0,0,0,0,0,0,0,0,0,0,0,0,0,0,
0,0,0,0,0,0,0,0,0,0,0,0,0,0,0,0,0,0,
0,0,0,0,0,9,67,7,67,16,0,0,0,0,0,0,0,0,
0,0,0,0,0,67,3,4,1,67,0,0,0,0,0,0,0,0,
0,0,0,0,0,5,4,1,4,11,0,0,0,0,0,0,0,0,
0,0,0,0,0,67,1,4,3,67,0,0,0,0,0,0,0,0,
0,0,0,0,0,22,67,19,67,27,0,0,0,0,0,0,0,0,
0,0,0,0,0,0,0,0,0,0,0,0,0,0,0,0,0,0,
0,0,0,0,0,0,0,0,0,0,0,0,0,0,0,0,0,0,
0,0,0,0,0,0,0,0,0,0,0,0,0,0,0,0,0,0,
0,0,0,0,0,0,0,0,0,0,0,0,0,0,0,0,0,0,
0,0,0,0,0,0,0,0,0,0,0,0,0,0,0,0,0,0,
0,0,0,0,0,0,0,0,0,0,0,0,0,0,0,0,0,0
</data>
  </layer>
  <layer id="2" name="path" width="18" height="18">
    <data encoding="csv">
0,0,0,0,0,0,0,0,0,0,0,0,0,0,0,0,0,0,
0,0,0,0,0,0,0,0,0,0,0,0,0,0,0,0,0,0,
0,0,0,0,0,0,0,0,0,0,0,0,0,0,0,0,0,0,
0,0,0,0,0,0,0,0,0,0,0,0,0,0,0,0,0,0,
0,0,0,0,0,0,0,0,0,0,0,0,0,0,0,0,0,0,
0,0,0,0,0,0,0,0,0,0,0,0,0,0,0,0,0,0,
0,0,0,0,0,0,0,0,0,0,0,0,0,0,0,0,0,0,
0,0,0,0,0,0,0,191,0,0,0,0,0,0,0,0,0,0,
0,0,0,0,0,0,0,194,0,0,0,0,0,0,0,0,0,0,
0,0,0,0,0,0,192,197,194,0,0,0,0,0,0,0,0,0,
0,0,0,0,0,0,0,192,0,0,0,0,0,0,0,0,0,0,
0,0,0,0,0,0,0,195,0,0,0,0,0,0,0,0,0,0,
0,0,0,0,0,0,0,0,0,0,0,0,0,0,0,0,0,0,
0,0,0,0,0,0,0,0,0,0,0,0,0,0,0,0,0,0,
0,0,0,0,0,0,0,0,0,0,0,0,0,0,0,0,0,0,
0,0,0,0,0,0,0,0,0,0,0,0,0,0,0,0,0,0,
0,0,0,0,0,0,0,0,0,0,0,0,0,0,0,0,0,0,
0,0,0,0,0,0,0,0,0,0,0,0,0,0,0,0,0,0
</data>
  </layer>
  <layer id="3" name="planter_edges_back" width="18" height="18">
    <data encoding="csv">
0,0,0,0,0,0,0,0,0,0,0,0,0,0,0,0,0,0,
0,0,0,0,0,0,0,0,0,0,0,0,0,0,0,0,0,0,
0,0,0,0,0,0,0,0,0,0,0,0,0,0,0,0,0,0,
0,0,0,0,0,0,0,0,0,0,0,0,0,0,0,0,0,0,
0,0,0,0,0,0,0,0,0,0,0,0,0,0,0,0,0,0,
0,0,0,0,0,0,0,0,0,0,0,0,0,0,0,0,0,0,
0,0,0,0,0,0,0,0,0,0,0,0,0,0,0,0,0,0,
0,0,0,0,0,0,76,0,0,0,0,0,0,0,0,0,0,0,
0,0,0,0,0,0,0,0,0,76,0,0,0,0,0,0,0,0,
0,0,0,0,0,0,0,0,0,0,0,0,0,0,0,0,0,0,
0,0,0,0,0,76,0,0,0,0,0,0,0,0,0,0,0,0,
0,0,0,0,0,0,0,0,76,0,0,0,0,0,0,0,0,0,
0,0,0,0,0,0,0,0,0,0,0,0,0,0,0,0,0,0,
0,0,0,0,0,0,0,0,0,0,0,0,0,0,0,0,0,0,
0,0,0,0,0,0,0,0,0,0,0,0,0,0,0,0,0,0,
0,0,0,0,0,0,0,0,0,0,0,0,0,0,0,0,0,0,
0,0,0,0,0,0,0,0,0,0,0,0,0,0,0,0,0,0,
0,0,0,0,0,0,0,0,0,0,0,0,0,0,0,0,0,0
</data>
  </layer>
  <objectgroup id="4" name="floor_decor">
    <object id="5" name="front_flowers" gid="177" x="312" y="470" width="53.20" height="40.60">
      <properties>
        <property name="gridCol" type="float" value="0.3" />
        <property name="gridRow" type="float" value="2.25" />
      </properties>
    </object>
  </objectgroup>
  <objectgroup id="5" name="vegetation">
    <object id="1" name="west_tree" gid="175" x="200" y="320" width="89.60" height="96.00">
      <properties>
        <property name="gridCol" type="float" value="-2.5" />
        <property name="gridRow" type="float" value="-1.5" />
      </properties>
    </object>
    <object id="2" name="east_tree" gid="181" x="320" y="280" width="86.80" height="93.00">
      <properties>
        <property name="gridCol" type="float" value="0.5" />
        <property name="gridRow" type="float" value="-2.5" />
      </properties>
    </object>
    <object id="3" name="west_hydrangea" gid="178" x="212" y="384" width="54.72" height="45.60">
      <properties>
        <property name="gridCol" type="float" value="-2.2" />
        <property name="gridRow" type="float" value="0.1" />
      </properties>
    </object>
    <object id="4" name="east_lavender" gid="179" x="376" y="376" width="48.96" height="43.20">
      <properties>
        <property name="gridCol" type="float" value="1.9" />
        <property name="gridRow" type="float" value="-0.1" />
      </properties>
    </object>
  </objectgroup>
  <objectgroup id="6" name="rocks" />
  <objectgroup id="7" name="structures">
    <object id="6" name="garden_arch" gid="144" x="386" y="442" width="64.96" height="60.32">
      <properties>
        <property name="gridCol" type="float" value="2.15" />
        <property name="gridRow" type="float" value="1.55" />
      </properties>
    </object>
  </objectgroup>
  <objectgroup id="8" name="props">
    <object id="7" name="garden_bench" gid="153" x="248" y="468" width="70.72" height="48.96">
      <properties>
        <property name="gridCol" type="float" value="-1.3" />
        <property name="gridRow" type="float" value="2.2" />
      </properties>
    </object>
    <object id="8" name="bird_bath" gid="150" x="300" y="380" width="52.80" height="52.80">
      <properties>
        <property name="gridCol" type="float" value="0" />
        <property name="gridRow" type="float" value="0" />
      </properties>
    </object>
    <object id="9" name="utility_barrel" gid="161" x="220" y="380" width="44.80" height="50.40">
      <properties>
        <property name="gridCol" type="float" value="-2" />
        <property name="gridRow" type="float" value="0" />
      </properties>
    </object>
    <object id="10" name="watering_can" gid="148" x="362" y="390" width="37.44" height="31.68">
      <properties>
        <property name="gridCol" type="float" value="1.55" />
        <property name="gridRow" type="float" value="0.25" />
      </properties>
    </object>
    <object id="11" name="harvest_basket" gid="159" x="286" y="466" width="32.64" height="32.64">
      <properties>
        <property name="gridCol" type="float" value="-0.35" />
        <property name="gridRow" type="float" value="2.15" />
      </properties>
    </object>
    <object id="12" name="east_upper_rock" gid="184" x="388" y="310" width="40.09" height="27.47" class="prop">
      <properties>
        <property name="gridCol" type="float" value="2.2" />
        <property name="gridRow" type="float" value="-1.75" />
      </properties>
    </object>
  </objectgroup>
  <objectgroup id="9" name="plots">
    <object id="13" name="plot_0" class="plot" x="260" y="300">
      <point />
      <properties>
        <property name="gridCol" type="float" value="-1" />
        <property name="gridRow" type="float" value="-2" />
        <property name="plotKind" value="planter" />
      </properties>
    </object>
    <object id="14" name="plot_1" class="plot" x="340" y="300">
      <point />
      <properties>
        <property name="gridCol" type="float" value="1" />
        <property name="gridRow" type="float" value="-2" />
        <property name="plotKind" value="earth" />
      </properties>
    </object>
    <object id="15" name="plot_2" class="plot" x="220" y="340">
      <point />
      <properties>
        <property name="gridCol" type="float" value="-2" />
        <property name="gridRow" type="float" value="-1" />
        <property name="plotKind" value="earth" />
      </properties>
    </object>
    <object id="16" name="plot_3" class="plot" x="380" y="340">
      <point />
      <properties>
        <property name="gridCol" type="float" value="2" />
        <property name="gridRow" type="float" value="-1" />
        <property name="plotKind" value="planter" />
      </properties>
    </object>
    <object id="17" name="plot_4" class="plot" x="220" y="420">
      <point />
      <properties>
        <property name="gridCol" type="float" value="-2" />
        <property name="gridRow" type="float" value="1" />
        <property name="plotKind" value="planter" />
      </properties>
    </object>
    <object id="18" name="plot_5" class="plot" x="380" y="420">
      <point />
      <properties>
        <property name="gridCol" type="float" value="2" />
        <property name="gridRow" type="float" value="1" />
        <property name="plotKind" value="earth" />
      </properties>
    </object>
    <object id="19" name="plot_6" class="plot" x="260" y="460">
      <point />
      <properties>
        <property name="gridCol" type="float" value="-1" />
        <property name="gridRow" type="float" value="2" />
        <property name="plotKind" value="earth" />
      </properties>
    </object>
    <object id="20" name="plot_7" class="plot" x="340" y="460">
      <point />
      <properties>
        <property name="gridCol" type="float" value="1" />
        <property name="gridRow" type="float" value="2" />
        <property name="plotKind" value="planter" />
      </properties>
    </object>
  </objectgroup>
  <objectgroup id="10" name="preview_plants" visible="0">
    <object id="21" name="preview_plant_0" gid="93" x="260" y="300" width="62.32" height="34.44">
      <properties>
        <property name="gridCol" type="float" value="-1" />
        <property name="gridRow" type="float" value="-2" />
        <property name="plotId" value="plot_0" />
      </properties>
    </object>
    <object id="22" name="preview_plant_1" gid="102" x="340" y="300" width="62.32" height="49.20">
      <properties>
        <property name="gridCol" type="float" value="1" />
        <property name="gridRow" type="float" value="-2" />
        <property name="plotId" value="plot_1" />
      </properties>
    </object>
    <object id="23" name="preview_plant_2" gid="115" x="220" y="340" width="65.60" height="65.60">
      <properties>
        <property name="gridCol" type="float" value="-2" />
        <property name="gridRow" type="float" value="-1" />
        <property name="plotId" value="plot_2" />
      </properties>
    </object>
    <object id="24" name="preview_plant_3" gid="93" x="380" y="340" width="62.32" height="34.44">
      <properties>
        <property name="gridCol" type="float" value="2" />
        <property name="gridRow" type="float" value="-1" />
        <property name="plotId" value="plot_3" />
      </properties>
    </object>
    <object id="25" name="preview_plant_4" gid="102" x="220" y="420" width="62.32" height="49.20">
      <properties>
        <property name="gridCol" type="float" value="-2" />
        <property name="gridRow" type="float" value="1" />
        <property name="plotId" value="plot_4" />
      </properties>
    </object>
    <object id="26" name="preview_plant_5" gid="115" x="380" y="420" width="65.60" height="65.60">
      <properties>
        <property name="gridCol" type="float" value="2" />
        <property name="gridRow" type="float" value="1" />
        <property name="plotId" value="plot_5" />
      </properties>
    </object>
    <object id="27" name="preview_plant_6" gid="93" x="260" y="460" width="62.32" height="34.44">
      <properties>
        <property name="gridCol" type="float" value="-1" />
        <property name="gridRow" type="float" value="2" />
        <property name="plotId" value="plot_6" />
      </properties>
    </object>
    <object id="28" name="preview_plant_7" gid="102" x="340" y="460" width="62.32" height="49.20">
      <properties>
        <property name="gridCol" type="float" value="1" />
        <property name="gridRow" type="float" value="2" />
        <property name="plotId" value="plot_7" />
      </properties>
    </object>
  </objectgroup>
  <layer id="11" name="planter_edges_front" width="18" height="18">
    <data encoding="csv">
0,0,0,0,0,0,0,0,0,0,0,0,0,0,0,0,0,0,
0,0,0,0,0,0,0,0,0,0,0,0,0,0,0,0,0,0,
0,0,0,0,0,0,0,0,0,0,0,0,0,0,0,0,0,0,
0,0,0,0,0,0,0,0,0,0,0,0,0,0,0,0,0,0,
0,0,0,0,0,0,0,0,0,0,0,0,0,0,0,0,0,0,
0,0,0,0,0,0,0,0,0,0,0,0,0,0,0,0,0,0,
0,0,0,0,0,0,0,0,0,0,0,0,0,0,0,0,0,0,
0,0,0,0,0,0,85,0,0,0,0,0,0,0,0,0,0,0,
0,0,0,0,0,0,0,0,0,85,0,0,0,0,0,0,0,0,
0,0,0,0,0,0,0,0,0,0,0,0,0,0,0,0,0,0,
0,0,0,0,0,85,0,0,0,0,0,0,0,0,0,0,0,0,
0,0,0,0,0,0,0,0,85,0,0,0,0,0,0,0,0,0,
0,0,0,0,0,0,0,0,0,0,0,0,0,0,0,0,0,0,
0,0,0,0,0,0,0,0,0,0,0,0,0,0,0,0,0,0,
0,0,0,0,0,0,0,0,0,0,0,0,0,0,0,0,0,0,
0,0,0,0,0,0,0,0,0,0,0,0,0,0,0,0,0,0,
0,0,0,0,0,0,0,0,0,0,0,0,0,0,0,0,0,0,
0,0,0,0,0,0,0,0,0,0,0,0,0,0,0,0,0,0
</data>
  </layer>
</map>